X: 42025
T: Walter Sammon's Grandmother
R: reel
M: 4/4
K: Gmajor
Bdde d2ge|d2BG BEED|Bdde dege|dBAc BGGA:|
Bdgd edgd|Bdgd eAAc|Bdgd edgd|edBG AGG2|
Bdgd edgd|Bdgb aAAa|gfed efge|dBAG BGG2||

